dist/img/icons/specialty/5.svg

<svg width="64" height="64" viewBox="0 0 64 64" fill="none" xmlns="http://www.w3.org/2000/svg">
<g clip-path="url(#clip0_115_322)">
<path d="M54.4002 10.6666C56.1675 10.6666 57.6002 9.23391 57.6002 7.4666C57.6002 5.69929 56.1675 4.2666 54.4002 4.2666C52.6329 4.2666 51.2002 5.69929 51.2002 7.4666C51.2002 9.23391 52.6329 10.6666 54.4002 10.6666ZM54.4002 6.39994C54.9893 6.39994 55.4669 6.8775 55.4669 7.4666C55.4669 8.05571 54.9893 8.53327 54.4002 8.53327C53.8111 8.53327 53.3335 8.05571 53.3335 7.4666C53.3335 6.8775 53.8111 6.39994 54.4002 6.39994Z" fill="#F1B08D"/>
<path d="M54.4002 33.0666C56.1675 33.0666 57.6002 31.6339 57.6002 29.8666C57.6002 28.0993 56.1675 26.6666 54.4002 26.6666C52.6329 26.6666 51.2002 28.0993 51.2002 29.8666C51.2002 31.6339 52.6329 33.0666 54.4002 33.0666ZM54.4002 28.8C54.9893 28.8 55.4669 29.2775 55.4669 29.8666C55.4669 30.4557 54.9893 30.9333 54.4002 30.9333C53.8111 30.9333 53.3335 30.4557 53.3335 29.8666C53.3335 29.2775 53.8111 28.8 54.4002 28.8Z" fill="#F1B08D"/>
<path d="M54.4002 55.4666C56.1675 55.4666 57.6002 54.034 57.6002 52.2666C57.6002 50.4993 56.1675 49.0667 54.4002 49.0667C52.6329 49.0667 51.2002 50.4993 51.2002 52.2666C51.2002 54.034 52.6329 55.4666 54.4002 55.4666ZM54.4002 51.2C54.9893 51.2 55.4669 51.6775 55.4669 52.2666C55.4669 52.8558 54.9893 53.3333 54.4002 53.3333C53.8111 53.3333 53.3335 52.8558 53.3335 52.2666C53.3335 51.6775 53.8111 51.2 54.4002 51.2Z" fill="#F1B08D"/>
<path d="M41.6 10.6666H44.8629C45.429 15.7295 49.8511 19.4686 54.9376 19.1851C60.0241 18.9016 64.0035 14.6944 64.0035 9.59998C64.0035 4.50558 60.0241 0.298319 54.9376 0.0148574C49.8511 -0.268604 45.429 3.47046 44.8629 8.53332H41.6C39.8327 8.53332 38.4 9.96601 38.4 11.7333V30.9333H35.2V17.0667C35.2 14.7102 33.2897 12.8 30.9333 12.8C28.5769 12.8 26.6667 14.7102 26.6667 17.0667V18.4885L14.72 23.4666H8.53332C4.04763 23.4932 0.348319 26.9883 0.0672973 31.4652C-0.213725 35.9422 3.01949 39.8724 7.46666 40.4597V46.9333C7.46666 49.2897 9.37691 51.2 11.7333 51.2C14.0897 51.2 16 49.2897 16 46.9333V41.0666L26.6667 45.5114V46.9333C26.6667 49.2897 28.5769 51.2 30.9333 51.2C33.2897 51.2 35.2 49.2897 35.2 46.9333V33.0666H38.4V52.2666C38.4 54.034 39.8327 55.4666 41.6 55.4666H44.8629C45.429 60.5295 49.8511 64.2686 54.9376 63.9851C60.0241 63.7016 64.0035 59.4944 64.0035 54.4C64.0035 49.3056 60.0241 45.0983 54.9376 44.8148C49.8511 44.5314 45.429 48.2704 44.8629 53.3333H41.6C41.0109 53.3333 40.5333 52.8557 40.5333 52.2666V33.0666H44.8629C45.429 38.1295 49.8511 41.8686 54.9376 41.5851C60.0241 41.3016 64.0035 37.0944 64.0035 32C64.0035 26.9056 60.0241 22.6983 54.9376 22.4149C49.8511 22.1314 45.429 25.8705 44.8629 30.9333H40.5333V11.7333C40.5333 11.1442 41.0109 10.6666 41.6 10.6666ZM51.6405 16.5333C52.2079 15.545 53.2604 14.9356 54.4 14.9356C55.5395 14.9356 56.5921 15.545 57.1595 16.5333C55.3891 17.2473 53.4109 17.2473 51.6405 16.5333ZM54.4 2.13332C57.5838 2.13057 60.4182 4.14917 61.4567 7.15883C62.4951 10.1685 61.5086 13.5055 59.0005 15.4666C58.0569 13.816 56.3013 12.7974 54.4 12.7974C52.4987 12.7974 50.7431 13.816 49.7994 15.4666C47.2914 13.5055 46.3048 10.1685 47.3433 7.15883C48.3817 4.14917 51.2162 2.13057 54.4 2.13332ZM2.13333 32C2.13685 28.4668 5.00016 25.6035 8.53332 25.6H13.8667V38.4H8.53332C5.00016 38.3965 2.13685 35.5331 2.13333 32ZM11.7333 49.0666C10.5551 49.0666 9.59999 48.1115 9.59999 46.9333V40.5333H13.8667V46.9333C13.8667 48.1115 12.9115 49.0666 11.7333 49.0666ZM16 38.7552V25.2448L26.6667 20.8V43.2L16 38.7552ZM33.0667 46.9333C33.0667 48.1115 32.1115 49.0666 30.9333 49.0666C29.7551 49.0666 28.8 48.1115 28.8 46.9333V17.0667C28.8 15.8884 29.7551 14.9333 30.9333 14.9333C32.1115 14.9333 33.0667 15.8884 33.0667 17.0667V46.9333ZM51.6405 61.3333C52.2079 60.345 53.2604 59.7356 54.4 59.7356C55.5395 59.7356 56.5921 60.345 57.1595 61.3333C55.3891 62.0473 53.4109 62.0473 51.6405 61.3333ZM54.4 46.9333C57.584 46.9301 60.4188 48.9485 61.4576 51.9583C62.4963 54.9681 61.5098 58.3054 59.0016 60.2666C58.0569 58.6167 56.3012 57.5988 54.4 57.5988C52.4987 57.5988 50.743 58.6167 49.7984 60.2666C47.2902 58.3054 46.3037 54.9681 47.3424 51.9583C48.3811 48.9485 51.216 46.9301 54.4 46.9333ZM51.6405 38.9333C52.2079 37.945 53.2604 37.3356 54.4 37.3356C55.5395 37.3356 56.5921 37.945 57.1595 38.9333C55.3891 39.6473 53.4109 39.6473 51.6405 38.9333ZM54.4 24.5333C57.584 24.5301 60.4188 26.5485 61.4576 29.5583C62.4963 32.5681 61.5098 35.9054 59.0016 37.8666C58.0569 36.2167 56.3012 35.1988 54.4 35.1988C52.4987 35.1988 50.743 36.2167 49.7984 37.8666C47.2902 35.9054 46.3037 32.5681 47.3424 29.5583C48.3811 26.5485 51.216 24.5301 54.4 24.5333Z" fill="#F1B08D"/>
</g>
<defs>
<clipPath id="clip0_115_322">
<rect width="64" height="64" fill="white"/>
</clipPath>
</defs>
</svg>

<svg width="64" height="64" fill="none" xmlns="http://www.w3.org/2000/svg"><g clip-path="url(#clip0_115_322)" fill="#F1B08D"><path d="M54.4 10.667a3.2 3.2 0 100-6.4 3.2 3.2 0 000 6.4zm0-4.267a1.067 1.067 0 110 2.133 1.067 1.067 0 010-2.133zm0 26.667a3.2 3.2 0 100-6.4 3.2 3.2 0 000 6.4zm0-4.267a1.067 1.067 0 110 2.133 1.067 1.067 0 010-2.133zm0 26.667a3.2 3.2 0 100-6.4 3.2 3.2 0 000 6.4zm0-4.267a1.067 1.067 0 110 2.133 1.067 1.067 0 010-2.133z"/><path d="M41.6 10.667h3.263a9.6 9.6 0 100-2.134H41.6a3.2 3.2 0 00-3.2 3.2v19.2h-3.2V17.067a4.267 4.267 0 10-8.533 0v1.421L14.72 23.467H8.533A8.533 8.533 0 007.467 40.46v6.473a4.267 4.267 0 108.533 0v-5.866l10.667 4.444v1.422a4.267 4.267 0 108.533 0V33.067h3.2v19.2a3.2 3.2 0 003.2 3.2h3.263a9.6 9.6 0 100-2.134H41.6c-.59 0-1.067-.477-1.067-1.066v-19.2h4.33a9.6 9.6 0 100-2.134h-4.33v-19.2c0-.589.478-1.066 1.067-1.066zm10.04 5.866a3.182 3.182 0 015.52 0 7.378 7.378 0 01-5.52 0zm2.76-14.4A7.458 7.458 0 0159 15.467a5.3 5.3 0 00-9.2 0 7.458 7.458 0 014.6-13.334zM2.133 32a6.406 6.406 0 016.4-6.4h5.334v12.8H8.533a6.406 6.406 0 01-6.4-6.4zm9.6 17.067A2.133 2.133 0 019.6 46.933v-6.4h4.267v6.4a2.133 2.133 0 01-2.134 2.134zM16 38.755v-13.51L26.667 20.8v22.4L16 38.755zm17.067 8.178a2.133 2.133 0 01-4.267 0V17.067a2.133 2.133 0 114.267 0v29.866zm18.574 14.4a3.182 3.182 0 015.519 0 7.378 7.378 0 01-5.52 0zm2.759-14.4a7.458 7.458 0 014.602 13.334 5.303 5.303 0 00-9.204 0A7.458 7.458 0 0154.4 46.933zm-2.76-8a3.182 3.182 0 015.52 0 7.378 7.378 0 01-5.52 0zm2.76-14.4a7.458 7.458 0 014.602 13.334 5.303 5.303 0 00-9.204 0A7.458 7.458 0 0154.4 24.533z"/></g><defs><clipPath id="clip0_115_322"><path fill="#fff" d="M0 0h64v64H0z"/></clipPath></defs></svg>
